src/main/resources/icons/AllIcons/providers/spark.svg

<svg xmlns="http://www.w3.org/2000/svg" width="16" height="16" viewBox="0 0 16 16">
  <path fill="#D2642C" fill-rule="evenodd" d="M8.97952929,11.374924 L6.12725784,14.6350972 C5.74392903,15.0732457 5.07063865,15.123987 4.6234217,14.7484312 C4.35445639,14.5225644 4.2175154,14.1805962 4.2579592,13.8358005 L4.71591617,9.93157844 L1.66162729,8.70265203 C1.11676767,8.48342182 0.85647122,7.87296117 1.0802389,7.33914999 C1.19989554,7.05370193 1.44221847,6.83466985 1.74225107,6.74076708 L5.5691275,5.54304964 L6.16906177,1.87952031 C6.26236958,1.30973139 6.80947587,0.921933313 7.39105788,1.01334906 C7.70230749,1.06227272 7.97552174,1.2435896 8.13735316,1.50862314 L9.83518415,4.28918427 L13.6298609,3.18516056 C14.1945092,3.02088171 14.7881778,3.33616347 14.9558568,3.88936209 C15.0587283,4.2287509 14.9791885,4.59608959 14.7445312,4.8653273 L11.9682125,8.05078038 L13.6312258,11.0682183 C13.9110811,11.5759991 13.7177913,12.2099039 13.1995009,12.4840845 C12.9334165,12.6248456 12.6188492,12.6483251 12.3340704,12.5486808 L8.97952929,11.374924 Z M8.5405162,9.76599664 L11.9311222,10.9472492 L10.2527621,7.91511639 L12.8461538,4.95239739 L9.19757722,6.00933057 L7.44643525,3.15384615 L6.86692436,6.67737683 L3.15384615,7.83445974 L6.27705742,9.08569098 L5.83404998,12.8461538 L8.5405162,9.76599664 Z"/>
</svg>

<svg xmlns="http://www.w3.org/2000/svg" width="16" height="16" viewBox="0 0 16 16"><rect id="frame" width="16" height="16" fill="none"/><path fill="#D2642C" fill-rule="evenodd" d="M8.98 11.375l-2.853 3.26a1.082 1.082 0 0 1-1.504.113 1.034 1.034 0 0 1-.365-.912l.458-3.904-3.054-1.23a1.038 1.038 0 0 1 .08-1.961L5.57 5.543l.6-3.663c.093-.57.64-.958 1.222-.867.311.05.585.23.746.496l1.698 2.78 3.795-1.104a1.07 1.07 0 0 1 1.326.704c.103.34.023.707-.211.976l-2.777 3.186 1.663 3.017c.28.508.087 1.142-.431 1.416-.267.14-.581.164-.866.065L8.98 11.375zm-.44-1.609l3.391 1.181-1.678-3.032 2.593-2.963L9.198 6.01 7.446 3.154l-.58 3.523-3.712 1.157 3.123 1.252-.443 3.76 2.707-3.08z"/></svg>
